images/50970932.svg

<?xml version="1.0" encoding="UTF-8"?>
<svg xmlns="http://www.w3.org/2000/svg" xmlns:xlink="http://www.w3.org/1999/xlink" width="300pt" height="300pt" viewBox="0 0 300 300" version="1.1">
<defs>
<g>
<symbol overflow="visible" id="glyph0-0">
<path style="stroke:none;" d="M 0.546875 1.9375 L 0.546875 -7.75 L 6.046875 -7.75 L 6.046875 1.9375 Z M 1.171875 1.328125 L 5.4375 1.328125 L 5.4375 -7.140625 L 1.171875 -7.140625 Z M 1.171875 1.328125 "/>
</symbol>
<symbol overflow="visible" id="glyph0-1">
<path style="stroke:none;" d="M 4.328125 -7.28125 C 3.546875 -7.28125 2.921875 -6.984375 2.453125 -6.390625 C 1.992188 -5.804688 1.765625 -5.007812 1.765625 -4 C 1.765625 -2.988281 1.992188 -2.1875 2.453125 -1.59375 C 2.921875 -1.007812 3.546875 -0.71875 4.328125 -0.71875 C 5.117188 -0.71875 5.742188 -1.007812 6.203125 -1.59375 C 6.660156 -2.1875 6.890625 -2.988281 6.890625 -4 C 6.890625 -5.007812 6.660156 -5.804688 6.203125 -6.390625 C 5.742188 -6.984375 5.117188 -7.28125 4.328125 -7.28125 Z M 4.328125 -8.171875 C 5.453125 -8.171875 6.351562 -7.789062 7.03125 -7.03125 C 7.707031 -6.28125 8.046875 -5.269531 8.046875 -4 C 8.046875 -2.738281 7.707031 -1.726562 7.03125 -0.96875 C 6.351562 -0.21875 5.453125 0.15625 4.328125 0.15625 C 3.203125 0.15625 2.300781 -0.21875 1.625 -0.96875 C 0.957031 -1.71875 0.625 -2.726562 0.625 -4 C 0.625 -5.269531 0.957031 -6.28125 1.625 -7.03125 C 2.300781 -7.789062 3.203125 -8.171875 4.328125 -8.171875 Z M 4.328125 -8.171875 "/>
</symbol>
<symbol overflow="visible" id="glyph0-2">
<path style="stroke:none;" d="M 1.078125 -8.015625 L 2.546875 -8.015625 L 6.09375 -1.3125 L 6.09375 -8.015625 L 7.15625 -8.015625 L 7.15625 0 L 5.6875 0 L 2.125 -6.703125 L 2.125 0 L 1.078125 0 Z M 1.078125 -8.015625 "/>
</symbol>
<symbol overflow="visible" id="glyph0-3">
<path style="stroke:none;" d="M 1.078125 -8.015625 L 2.171875 -8.015625 L 2.171875 -4.734375 L 6.109375 -4.734375 L 6.109375 -8.015625 L 7.1875 -8.015625 L 7.1875 0 L 6.109375 0 L 6.109375 -3.8125 L 2.171875 -3.8125 L 2.171875 0 L 1.078125 0 Z M 1.078125 -8.015625 "/>
</symbol>
</g>
</defs>
<g id="surface22505">
<rect x="0" y="0" width="300" height="300" style="fill:rgb(100%,100%,100%);fill-opacity:1;stroke:none;"/>
<path style="fill:none;stroke-width:1.2;stroke-linecap:butt;stroke-linejoin:miter;stroke:rgb(100%,0%,0%);stroke-opacity:1;stroke-miterlimit:10;" d="M 160.183594 156.078125 L 170.960938 147.214844 "/>
<path style="fill:none;stroke-width:1.2;stroke-linecap:butt;stroke-linejoin:miter;stroke:rgb(0%,0%,0%);stroke-opacity:1;stroke-miterlimit:10;" d="M 170.960938 147.214844 L 181.734375 138.347656 "/>
<path style="fill:none;stroke-width:1.2;stroke-linecap:butt;stroke-linejoin:miter;stroke:rgb(0%,0%,0%);stroke-opacity:1;stroke-miterlimit:10;" d="M 160.609375 183.984375 L 160.398438 170.03125 "/>
<path style="fill:none;stroke-width:1.2;stroke-linecap:butt;stroke-linejoin:miter;stroke:rgb(100%,0%,0%);stroke-opacity:1;stroke-miterlimit:10;" d="M 160.398438 170.03125 L 160.183594 156.078125 "/>
<path style=" stroke:none;fill-rule:nonzero;fill:rgb(100%,100%,100%);fill-opacity:1;" d="M 156.183594 149.578125 L 165.183594 149.578125 L 165.183594 162.578125 L 156.183594 162.578125 Z M 156.183594 149.578125 "/>
<g style="fill:rgb(100%,0%,0%);fill-opacity:1;">
  <use xlink:href="#glyph0-1" x="156.183594" y="159.479492"/>
</g>
<path style="fill:none;stroke-width:1.2;stroke-linecap:butt;stroke-linejoin:miter;stroke:rgb(0%,0%,0%);stroke-opacity:1;stroke-miterlimit:10;" d="M 181.734375 138.347656 L 209.035156 144.144531 "/>
<path style="fill:none;stroke-width:1.2;stroke-linecap:butt;stroke-linejoin:miter;stroke:rgb(0%,0%,0%);stroke-opacity:1;stroke-miterlimit:10;" d="M 209.035156 144.144531 L 221.523438 169.097656 "/>
<path style="fill:none;stroke-width:1.2;stroke-linecap:butt;stroke-linejoin:miter;stroke:rgb(0%,0%,0%);stroke-opacity:1;stroke-miterlimit:10;" d="M 216.15625 143.699219 L 226.148438 163.664062 "/>
<path style="fill:none;stroke-width:1.2;stroke-linecap:butt;stroke-linejoin:miter;stroke:rgb(0%,0%,0%);stroke-opacity:1;stroke-miterlimit:10;" d="M 224.402344 120.847656 L 209.035156 144.144531 "/>
<path style="fill:none;stroke-width:1.2;stroke-linecap:butt;stroke-linejoin:miter;stroke:rgb(0%,0%,0%);stroke-opacity:1;stroke-miterlimit:10;" d="M 221.523438 169.097656 L 249.382812 170.761719 "/>
<path style="fill:none;stroke-width:1.2;stroke-linecap:butt;stroke-linejoin:miter;stroke:rgb(0%,0%,0%);stroke-opacity:1;stroke-miterlimit:10;" d="M 221.523438 169.097656 L 209.800781 194.425781 "/>
<path style="fill:none;stroke-width:1.2;stroke-linecap:butt;stroke-linejoin:miter;stroke:rgb(0%,0%,0%);stroke-opacity:1;stroke-miterlimit:10;" d="M 249.382812 170.761719 L 264.75 147.464844 "/>
<path style="fill:none;stroke-width:1.2;stroke-linecap:butt;stroke-linejoin:miter;stroke:rgb(0%,0%,0%);stroke-opacity:1;stroke-miterlimit:10;" d="M 245.4375 164.816406 L 257.730469 146.179688 "/>
<path style="fill:none;stroke-width:1.2;stroke-linecap:butt;stroke-linejoin:miter;stroke:rgb(0%,0%,0%);stroke-opacity:1;stroke-miterlimit:10;" d="M 264.75 147.464844 L 252.257812 122.507812 "/>
<path style="fill:none;stroke-width:1.2;stroke-linecap:butt;stroke-linejoin:miter;stroke:rgb(0%,0%,0%);stroke-opacity:1;stroke-miterlimit:10;" d="M 252.257812 122.507812 L 224.402344 120.847656 "/>
<path style="fill:none;stroke-width:1.2;stroke-linecap:butt;stroke-linejoin:miter;stroke:rgb(0%,0%,0%);stroke-opacity:1;stroke-miterlimit:10;" d="M 249.082031 128.898438 L 226.796875 127.570312 "/>
<path style="fill:none;stroke-width:1.2;stroke-linecap:butt;stroke-linejoin:miter;stroke:rgb(0%,0%,0%);stroke-opacity:1;stroke-miterlimit:10;" d="M 207.265625 196.511719 L 216.132812 207.285156 "/>
<path style="fill:none;stroke-width:1.2;stroke-linecap:butt;stroke-linejoin:miter;stroke:rgb(100%,0%,0%);stroke-opacity:1;stroke-miterlimit:10;" d="M 216.132812 207.285156 L 224.996094 218.0625 "/>
<path style="fill:none;stroke-width:1.2;stroke-linecap:butt;stroke-linejoin:miter;stroke:rgb(0%,0%,0%);stroke-opacity:1;stroke-miterlimit:10;" d="M 212.335938 192.339844 L 221.203125 203.113281 "/>
<path style="fill:none;stroke-width:1.2;stroke-linecap:butt;stroke-linejoin:miter;stroke:rgb(100%,0%,0%);stroke-opacity:1;stroke-miterlimit:10;" d="M 221.203125 203.113281 L 230.066406 213.890625 "/>
<path style="fill:none;stroke-width:1.2;stroke-linecap:butt;stroke-linejoin:miter;stroke:rgb(0%,0%,0%);stroke-opacity:1;stroke-miterlimit:10;" d="M 209.800781 194.425781 L 182.691406 201.046875 "/>
<path style=" stroke:none;fill-rule:nonzero;fill:rgb(100%,100%,100%);fill-opacity:1;" d="M 223.53125 209.476562 L 232.53125 209.476562 L 232.53125 222.476562 L 223.53125 222.476562 Z M 223.53125 209.476562 "/>
<g style="fill:rgb(100%,0%,0%);fill-opacity:1;">
  <use xlink:href="#glyph0-1" x="223.53125" y="219.37793"/>
</g>
<path style="fill:none;stroke-width:1.2;stroke-linecap:butt;stroke-linejoin:miter;stroke:rgb(0%,0%,0%);stroke-opacity:1;stroke-miterlimit:10;" d="M 182.691406 201.046875 L 160.609375 183.984375 "/>
<path style="fill:none;stroke-width:1.2;stroke-linecap:butt;stroke-linejoin:miter;stroke:rgb(0%,0%,0%);stroke-opacity:1;stroke-miterlimit:10;" d="M 176.46875 204.539062 L 158.804688 190.886719 "/>
<path style="fill:none;stroke-width:1.2;stroke-linecap:butt;stroke-linejoin:miter;stroke:rgb(0%,0%,0%);stroke-opacity:1;stroke-miterlimit:10;" d="M 178.953125 228.703125 L 182.691406 201.046875 "/>
<path style="fill:none;stroke-width:1.2;stroke-linecap:butt;stroke-linejoin:miter;stroke:rgb(0%,0%,0%);stroke-opacity:1;stroke-miterlimit:10;" d="M 160.609375 183.984375 L 134.789062 194.574219 "/>
<path style="fill:none;stroke-width:1.2;stroke-linecap:butt;stroke-linejoin:miter;stroke:rgb(0%,0%,0%);stroke-opacity:1;stroke-miterlimit:10;" d="M 134.789062 194.574219 L 131.050781 222.230469 "/>
<path style="fill:none;stroke-width:1.2;stroke-linecap:butt;stroke-linejoin:miter;stroke:rgb(0%,0%,0%);stroke-opacity:1;stroke-miterlimit:10;" d="M 140.925781 198.21875 L 137.933594 220.34375 "/>
<path style="fill:none;stroke-width:1.2;stroke-linecap:butt;stroke-linejoin:miter;stroke:rgb(0%,0%,0%);stroke-opacity:1;stroke-miterlimit:10;" d="M 131.050781 222.230469 L 118.140625 227.523438 "/>
<path style="fill:none;stroke-width:1.2;stroke-linecap:butt;stroke-linejoin:miter;stroke:rgb(0%,0%,100%);stroke-opacity:1;stroke-miterlimit:10;" d="M 118.140625 227.523438 L 105.234375 232.820312 "/>
<path style="fill:none;stroke-width:1.2;stroke-linecap:butt;stroke-linejoin:miter;stroke:rgb(0%,0%,0%);stroke-opacity:1;stroke-miterlimit:10;" d="M 131.050781 222.230469 L 153.132812 239.292969 "/>
<path style="fill:none;stroke-width:1.2;stroke-linecap:butt;stroke-linejoin:miter;stroke:rgb(0%,0%,100%);stroke-opacity:1;stroke-miterlimit:10;" d="M 105.234375 232.820312 L 94.191406 224.289062 "/>
<path style="fill:none;stroke-width:1.2;stroke-linecap:butt;stroke-linejoin:miter;stroke:rgb(0%,0%,0%);stroke-opacity:1;stroke-miterlimit:10;" d="M 94.191406 224.289062 L 83.152344 215.753906 "/>
<path style=" stroke:none;fill-rule:nonzero;fill:rgb(100%,100%,100%);fill-opacity:1;" d="M 97.234375 226.320312 L 114.234375 226.320312 L 114.234375 239.320312 L 97.234375 239.320312 Z M 97.234375 226.320312 "/>
<g style="fill:rgb(0%,0%,100%);fill-opacity:1;">
  <use xlink:href="#glyph0-2" x="97.234375" y="236.22168"/>
  <use xlink:href="#glyph0-3" x="105.217773" y="236.22168"/>
</g>
<path style="fill:none;stroke-width:1.2;stroke-linecap:butt;stroke-linejoin:miter;stroke:rgb(0%,0%,0%);stroke-opacity:1;stroke-miterlimit:10;" d="M 83.152344 215.753906 L 86.890625 188.097656 "/>
<path style="fill:none;stroke-width:1.2;stroke-linecap:butt;stroke-linejoin:miter;stroke:rgb(0%,0%,0%);stroke-opacity:1;stroke-miterlimit:10;" d="M 77.019531 212.109375 L 80.007812 189.984375 "/>
<path style="fill:none;stroke-width:1.2;stroke-linecap:butt;stroke-linejoin:miter;stroke:rgb(0%,0%,0%);stroke-opacity:1;stroke-miterlimit:10;" d="M 57.332031 226.34375 L 83.152344 215.753906 "/>
<path style="fill:none;stroke-width:1.2;stroke-linecap:butt;stroke-linejoin:miter;stroke:rgb(0%,0%,0%);stroke-opacity:1;stroke-miterlimit:10;" d="M 86.890625 188.097656 L 64.808594 171.035156 "/>
<path style="fill:none;stroke-width:1.2;stroke-linecap:butt;stroke-linejoin:miter;stroke:rgb(0%,0%,0%);stroke-opacity:1;stroke-miterlimit:10;" d="M 64.808594 171.035156 L 66.675781 157.207031 "/>
<path style="fill:none;stroke-width:1.2;stroke-linecap:butt;stroke-linejoin:miter;stroke:rgb(0%,0%,100%);stroke-opacity:1;stroke-miterlimit:10;" d="M 66.675781 157.207031 L 68.546875 143.378906 "/>
<path style="fill:none;stroke-width:1.2;stroke-linecap:butt;stroke-linejoin:miter;stroke:rgb(0%,0%,0%);stroke-opacity:1;stroke-miterlimit:10;" d="M 64.808594 171.035156 L 38.988281 181.625 "/>
<path style="fill:none;stroke-width:1.2;stroke-linecap:butt;stroke-linejoin:miter;stroke:rgb(0%,0%,0%);stroke-opacity:1;stroke-miterlimit:10;" d="M 64.71875 178.167969 L 44.0625 186.640625 "/>
<path style="fill:none;stroke-width:1.2;stroke-linecap:butt;stroke-linejoin:miter;stroke:rgb(0%,0%,100%);stroke-opacity:1;stroke-miterlimit:10;" d="M 68.546875 143.378906 L 81.457031 138.082031 "/>
<path style="fill:none;stroke-width:1.2;stroke-linecap:butt;stroke-linejoin:miter;stroke:rgb(0%,0%,0%);stroke-opacity:1;stroke-miterlimit:10;" d="M 81.457031 138.082031 L 94.367188 132.789062 "/>
<path style=" stroke:none;fill-rule:nonzero;fill:rgb(100%,100%,100%);fill-opacity:1;" d="M 60.546875 136.878906 L 77.546875 136.878906 L 77.546875 149.878906 L 60.546875 149.878906 Z M 60.546875 136.878906 "/>
<g style="fill:rgb(0%,0%,100%);fill-opacity:1;">
  <use xlink:href="#glyph0-2" x="60.546875" y="146.780273"/>
  <use xlink:href="#glyph0-3" x="68.530273" y="146.780273"/>
</g>
<path style="fill:none;stroke-width:1.2;stroke-linecap:butt;stroke-linejoin:miter;stroke:rgb(0%,0%,0%);stroke-opacity:1;stroke-miterlimit:10;" d="M 92.359375 135.386719 L 103.398438 143.917969 "/>
<path style="fill:none;stroke-width:1.2;stroke-linecap:butt;stroke-linejoin:miter;stroke:rgb(100%,0%,0%);stroke-opacity:1;stroke-miterlimit:10;" d="M 103.398438 143.917969 L 114.4375 152.449219 "/>
<path style="fill:none;stroke-width:1.2;stroke-linecap:butt;stroke-linejoin:miter;stroke:rgb(0%,0%,0%);stroke-opacity:1;stroke-miterlimit:10;" d="M 96.375 130.191406 L 107.414062 138.722656 "/>
<path style="fill:none;stroke-width:1.2;stroke-linecap:butt;stroke-linejoin:miter;stroke:rgb(100%,0%,0%);stroke-opacity:1;stroke-miterlimit:10;" d="M 107.414062 138.722656 L 118.453125 147.253906 "/>
<path style="fill:none;stroke-width:1.2;stroke-linecap:butt;stroke-linejoin:miter;stroke:rgb(0%,0%,0%);stroke-opacity:1;stroke-miterlimit:10;" d="M 94.367188 132.789062 L 98.105469 105.132812 "/>
<path style=" stroke:none;fill-rule:nonzero;fill:rgb(100%,100%,100%);fill-opacity:1;" d="M 112.445312 143.351562 L 121.445312 143.351562 L 121.445312 156.351562 L 112.445312 156.351562 Z M 112.445312 143.351562 "/>
<g style="fill:rgb(100%,0%,0%);fill-opacity:1;">
  <use xlink:href="#glyph0-1" x="112.445312" y="153.25293"/>
</g>
<path style="fill:none;stroke-width:1.2;stroke-linecap:butt;stroke-linejoin:miter;stroke:rgb(0%,0%,0%);stroke-opacity:1;stroke-miterlimit:10;" d="M 98.105469 105.132812 L 77.925781 85.851562 "/>
<path style="fill:none;stroke-width:1.2;stroke-linecap:butt;stroke-linejoin:miter;stroke:rgb(0%,0%,0%);stroke-opacity:1;stroke-miterlimit:10;" d="M 122.675781 91.902344 L 98.105469 105.132812 "/>
<path style="fill:none;stroke-width:1.2;stroke-linecap:butt;stroke-linejoin:miter;stroke:rgb(0%,0%,0%);stroke-opacity:1;stroke-miterlimit:10;" d="M 117.105469 87.441406 L 97.449219 98.027344 "/>
<path style="fill:none;stroke-width:1.2;stroke-linecap:butt;stroke-linejoin:miter;stroke:rgb(0%,0%,0%);stroke-opacity:1;stroke-miterlimit:10;" d="M 77.925781 85.851562 L 90.027344 60.707031 "/>
<path style="fill:none;stroke-width:1.2;stroke-linecap:butt;stroke-linejoin:miter;stroke:rgb(0%,0%,0%);stroke-opacity:1;stroke-miterlimit:10;" d="M 85.054688 86.183594 L 94.734375 66.066406 "/>
<path style="fill:none;stroke-width:1.2;stroke-linecap:butt;stroke-linejoin:miter;stroke:rgb(0%,0%,0%);stroke-opacity:1;stroke-miterlimit:10;" d="M 90.027344 60.707031 L 103.855469 62.574219 "/>
<path style="fill:none;stroke-width:1.2;stroke-linecap:butt;stroke-linejoin:miter;stroke:rgb(100%,0%,0%);stroke-opacity:1;stroke-miterlimit:10;" d="M 103.855469 62.574219 L 117.683594 64.441406 "/>
<path style="fill:none;stroke-width:1.2;stroke-linecap:butt;stroke-linejoin:miter;stroke:rgb(100%,0%,0%);stroke-opacity:1;stroke-miterlimit:10;" d="M 117.683594 64.441406 L 120.179688 78.171875 "/>
<path style="fill:none;stroke-width:1.2;stroke-linecap:butt;stroke-linejoin:miter;stroke:rgb(0%,0%,0%);stroke-opacity:1;stroke-miterlimit:10;" d="M 120.179688 78.171875 L 122.675781 91.902344 "/>
<path style=" stroke:none;fill-rule:nonzero;fill:rgb(100%,100%,100%);fill-opacity:1;" d="M 113.683594 57.941406 L 122.683594 57.941406 L 122.683594 70.941406 L 113.683594 70.941406 Z M 113.683594 57.941406 "/>
<g style="fill:rgb(100%,0%,0%);fill-opacity:1;">
  <use xlink:href="#glyph0-1" x="113.683594" y="67.842773"/>
</g>
<path style="fill:none;stroke-width:1.2;stroke-linecap:butt;stroke-linejoin:miter;stroke:rgb(0%,0%,0%);stroke-opacity:1;stroke-miterlimit:10;" d="M 38.988281 181.625 L 35.25 209.28125 "/>
<path style="fill:none;stroke-width:1.2;stroke-linecap:butt;stroke-linejoin:miter;stroke:rgb(0%,0%,0%);stroke-opacity:1;stroke-miterlimit:10;" d="M 35.25 209.28125 L 57.332031 226.34375 "/>
<path style="fill:none;stroke-width:1.2;stroke-linecap:butt;stroke-linejoin:miter;stroke:rgb(0%,0%,0%);stroke-opacity:1;stroke-miterlimit:10;" d="M 41.472656 205.792969 L 59.140625 219.445312 "/>
<path style="fill:none;stroke-width:1.2;stroke-linecap:butt;stroke-linejoin:miter;stroke:rgb(0%,0%,0%);stroke-opacity:1;stroke-miterlimit:10;" d="M 153.132812 239.292969 L 178.953125 228.703125 "/>
<path style="fill:none;stroke-width:1.2;stroke-linecap:butt;stroke-linejoin:miter;stroke:rgb(0%,0%,0%);stroke-opacity:1;stroke-miterlimit:10;" d="M 153.222656 232.160156 L 173.878906 223.6875 "/>
</g>
</svg>

<svg xmlns="http://www.w3.org/2000/svg" xmlns:xlink="http://www.w3.org/1999/xlink" width="300pt" height="300pt" viewBox="0 0 300 300"><defs><symbol overflow="visible"><path d="M.547 1.938V-7.75h5.5v9.688zm.625-.61h4.266v-8.47H1.171zm0 0"/></symbol><symbol overflow="visible" id="a"><path d="M4.328-7.28c-.78 0-1.406.296-1.875.89-.46.585-.687 1.382-.687 2.39 0 1.012.226 1.813.687 2.406.47.586 1.094.875 1.875.875.79 0 1.414-.288 1.875-.874.457-.593.688-1.394.688-2.406 0-1.008-.23-1.805-.687-2.39-.46-.594-1.086-.89-1.875-.89zm0-.892c1.125 0 2.024.383 2.703 1.14C7.708-6.28 8.048-5.27 8.048-4c0 1.262-.34 2.273-1.016 3.03C6.353-.22 5.454.157 4.33.157S2.3-.22 1.625-.97c-.668-.75-1-1.757-1-3.03 0-1.27.332-2.28 1-3.03.676-.76 1.578-1.142 2.703-1.142zm0 0"/></symbol><symbol overflow="visible" id="b"><path d="M1.078-8.016h1.47l3.546 6.704v-6.704h1.062V0H5.688L2.124-6.703V0H1.078zm0 0"/></symbol><symbol overflow="visible" id="c"><path d="M1.078-8.016h1.094v3.282H6.11v-3.282h1.077V0H6.11v-3.813H2.17V0H1.078zm0 0"/></symbol></defs><g><path fill="#fff" d="M0 0h300v300H0z"/><path d="M160.184 156.078l10.777-8.863" stroke-width="1.2" stroke="#f00" stroke-miterlimit="10" fill="none"/><path d="M170.96 147.215l10.774-8.867M160.61 183.984l-.212-13.953" stroke-width="1.2" stroke="#000" stroke-miterlimit="10" fill="none"/><path d="M160.398 170.03l-.214-13.952" stroke-width="1.2" stroke="#f00" stroke-miterlimit="10" fill="none"/><path d="M156.184 149.578h9v13h-9zm0 0" fill="#fff"/><use xlink:href="#a" x="156.184" y="159.479" fill="#f00"/><path d="M181.734 138.348l27.3 5.797M209.035 144.145l12.488 24.953M216.156 143.7l9.992 19.964M224.402 120.848l-15.367 23.297M221.523 169.098l27.86 1.664M221.523 169.098L209.8 194.426M249.383 170.762l15.367-23.297M245.438 164.816l12.292-18.636M264.75 147.465l-12.492-24.957M252.258 122.508l-27.856-1.66M249.082 128.898l-22.285-1.328M207.266 196.512l8.867 10.773" stroke-width="1.2" stroke="#000" stroke-miterlimit="10" fill="none"/><path d="M216.133 207.285l8.863 10.778" stroke-width="1.2" stroke="#f00" stroke-miterlimit="10" fill="none"/><path d="M212.336 192.34l8.867 10.773" stroke-width="1.2" stroke="#000" stroke-miterlimit="10" fill="none"/><path d="M221.203 203.113l8.863 10.778" stroke-width="1.2" stroke="#f00" stroke-miterlimit="10" fill="none"/><path d="M209.8 194.426l-27.11 6.62" stroke-width="1.2" stroke="#000" stroke-miterlimit="10" fill="none"/><path d="M223.53 209.477h9v13h-9zm0 0" fill="#fff"/><use xlink:href="#a" x="223.531" y="219.378" fill="#f00"/><path d="M182.69 201.047l-22.08-17.063M176.47 204.54l-17.665-13.653M178.953 228.703l3.738-27.656M160.61 183.984l-25.82 10.59M134.79 194.574l-3.74 27.656M140.926 198.22l-2.992 22.124M131.05 222.23l-12.91 5.293" stroke-width="1.2" stroke="#000" stroke-miterlimit="10" fill="none"/><path d="M118.14 227.523l-12.906 5.297" stroke-width="1.2" stroke="#00f" stroke-miterlimit="10" fill="none"/><path d="M131.05 222.23l22.083 17.063" stroke-width="1.2" stroke="#000" stroke-miterlimit="10" fill="none"/><path d="M105.234 232.82l-11.043-8.53" stroke-width="1.2" stroke="#00f" stroke-miterlimit="10" fill="none"/><path d="M94.19 224.29l-11.038-8.536" stroke-width="1.2" stroke="#000" stroke-miterlimit="10" fill="none"/><path d="M97.234 226.32h17v13h-17zm0 0" fill="#fff"/><g fill="#00f"><use xlink:href="#b" x="97.234" y="236.222"/><use xlink:href="#c" x="105.218" y="236.222"/></g><path d="M83.152 215.754l3.74-27.656M77.02 212.11l2.988-22.126M57.332 226.344l25.82-10.59M86.89 188.098l-22.08-17.063M64.81 171.035l1.866-13.828" stroke-width="1.2" stroke="#000" stroke-miterlimit="10" fill="none"/><path d="M66.676 157.207l1.87-13.828" stroke-width="1.2" stroke="#00f" stroke-miterlimit="10" fill="none"/><path d="M64.81 171.035l-25.822 10.59M64.72 178.168l-20.657 8.473" stroke-width="1.2" stroke="#000" stroke-miterlimit="10" fill="none"/><path d="M68.547 143.38l12.91-5.298" stroke-width="1.2" stroke="#00f" stroke-miterlimit="10" fill="none"/><path d="M81.457 138.082l12.91-5.293" stroke-width="1.2" stroke="#000" stroke-miterlimit="10" fill="none"/><path d="M60.547 136.88h17v13h-17zm0 0" fill="#fff"/><g fill="#00f"><use xlink:href="#b" x="60.547" y="146.78"/><use xlink:href="#c" x="68.53" y="146.78"/></g><path d="M92.36 135.387l11.038 8.53" stroke-width="1.2" stroke="#000" stroke-miterlimit="10" fill="none"/><path d="M103.398 143.918l11.04 8.53" stroke-width="1.2" stroke="#f00" stroke-miterlimit="10" fill="none"/><path d="M96.375 130.19l11.04 8.533" stroke-width="1.2" stroke="#000" stroke-miterlimit="10" fill="none"/><path d="M107.414 138.723l11.04 8.53" stroke-width="1.2" stroke="#f00" stroke-miterlimit="10" fill="none"/><path d="M94.367 132.79l3.738-27.657" stroke-width="1.2" stroke="#000" stroke-miterlimit="10" fill="none"/><path d="M112.445 143.352h9v13h-9zm0 0" fill="#fff"/><use xlink:href="#a" x="112.445" y="153.253" fill="#f00"/><path d="M98.105 105.133l-20.18-19.28M122.676 91.902l-24.57 13.23M117.105 87.44L97.45 98.028M77.926 85.852l12.1-25.145M85.055 86.184l9.68-20.118M90.027 60.707l13.828 1.867" stroke-width="1.2" stroke="#000" stroke-miterlimit="10" fill="none"/><path d="M103.855 62.574l13.83 1.867M117.684 64.44l2.496 13.732" stroke-width="1.2" stroke="#f00" stroke-miterlimit="10" fill="none"/><path d="M120.18 78.172l2.496 13.73" stroke-width="1.2" stroke="#000" stroke-miterlimit="10" fill="none"/><path d="M113.684 57.94h9v13h-9zm0 0" fill="#fff"/><use xlink:href="#a" x="113.684" y="67.843" fill="#f00"/><path d="M38.988 181.625L35.25 209.28M35.25 209.28l22.082 17.064M41.473 205.793l17.668 13.652M153.133 239.293l25.82-10.59M153.223 232.16l20.656-8.472" stroke-width="1.2" stroke="#000" stroke-miterlimit="10" fill="none"/></g></svg>
